; generated by Slic3r 1.2.9 on 2015-09-28 at 21:23:00

; external perimeters extrusion width = 0.40mm
; perimeters extrusion width = 0.67mm
; infill extrusion width = 0.67mm
; solid infill extrusion width = 0.67mm
; top infill extrusion width = 0.67mm
; support material extrusion width = 0.40mm

M107
M104 S208 ; set temperature
G28 X0 Y0  
G29
M109 S208 ; wait for temperature to be reached
G21 ; set units to millimeters
G90 ; use absolute coordinates
M82 ; use absolute distances for extrusion
G92 E0
G1 E-1.00000 F1800.00000
G92 E0
G1 Z0.400 F4200.000
G1 X7.420 Y8.798 F4200.000
G1 E1.00000 F1800.00000
G1 X7.549 Y8.690 E1.01994 F1080.000
G1 X9.714 Y7.887 E1.29417
G1 X10.913 Y7.776 E1.43721
G1 X56.797 Y7.656 E6.88665
G1 X142.797 Y7.656 E17.10045
G1 X145.071 Y8.053 E17.37468
G1 X147.077 Y9.197 E17.64890 F1080.000
G1 X148.576 Y10.953 E17.92313
G1 X149.510 Y14.258 E18.33098
G1 X150.997 Y103.114 E28.88551
G1 X150.992 Y110.768 E29.79457
G1 X150.191 Y131.927 E32.30929
G1 X149.708 Y134.185 E32.58352
G1 X148.489 Y136.146 E32.85774
G1 X146.260 Y137.785 E33.18635
G1 X135.260 Y142.785 E34.62140
G1 X132.495 Y143.387 E34.95740
G1 X85.797 Y143.484 E40.50356
G1 X21.797 Y143.484 E48.10453
G1 X19.019 Y142.882 E48.44215
G1 X8.019 Y137.882 E49.87720
G1 X6.112 Y136.580 E50.15142
G1 X4.760 Y134.708 E50.42564
G1 X4.083 Y131.770 E50.78375
G1 X4.083 Y36.370 E62.11394
G1 X4.216 Y14.449 E64.71744
G1 X4.627 Y12.177 E64.99167
G1 X5.784 Y10.178 E65.26589
G1 X7.374 Y8.837 E65.51305
G1 E64.51305 F1800.00000
G92 E0
G1 X66.114 Y53.540 F4200.000
G1 E1.00000 F1800.00000
G1 X63.339 Y50.765 E1.46599 F1080.000
G1 X63.339 Y48.484 E1.73686
G1 X62.921 Y48.066 E1.80713
G1 X54.640 Y48.066 E2.79060
G1 X53.644 Y47.070 E2.95797
G1 X53.052 Y47.070 E3.02823
G1 X52.424 Y47.698 E3.13377
G1 X44.143 Y47.698 E4.11723
G1 X43.725 Y48.116 E4.18750
G1 X43.725 Y50.397 E4.45837
G1 X41.424 Y52.698 E4.84483
G1 X20.170 Y52.698 E7.36906
G1 X17.869 Y50.397 E7.75552
G1 X17.869 Y48.116 E8.02639
G1 X17.451 Y47.698 E8.09666
G1 X9.170 Y47.698 E9.08012
G1 X6.869 Y45.397 E9.46658
G1 X6.869 Y34.743 E10.73190
G1 X9.170 Y32.442 E11.11835
G1 X22.424 Y32.442 E12.69246
G1 X24.725 Y34.743 E13.07892
G1 X24.725 Y35.224 E13.13602
G1 X25.143 Y35.642 E13.20628
G1 X36.451 Y35.642 E14.54923
G1 X36.869 Y35.224 E14.61949
G1 X36.869 Y34.743 E14.67659
G1 X39.170 Y32.442 E15.06305
G1 X52.424 Y32.442 E16.63715
G1 X53.420 Y33.439 E16.80453
G1 X54.012 Y33.439 E16.87479
G1 X54.640 Y32.810 E16.98033
G1 X67.894 Y32.810 E18.55443
G1 X70.195 Y35.111 E18.94089
G1 X70.195 Y35.592 E18.99799
G1 X70.614 Y36.010 E19.06825
G1 X81.921 Y36.010 E20.41120
G1 X82.339 Y35.592 E20.48146
G1 X82.339 Y35.111 E20.53856
G1 X84.640 Y32.810 E20.92502
G1 X97.894 Y32.810 E22.49913
G1 X99.052 Y33.968 E22.69361
G1 X99.644 Y33.968 E22.76387
G1 X101.170 Y32.442 E23.02019
G1 X114.424 Y32.442 E24.59430
G1 X116.725 Y34.743 E24.98076
G1 X116.725 Y35.224 E25.03785
G1 X117.143 Y35.642 E25.10812
G1 X128.451 Y35.642 E26.45106
G1 X128.869 Y35.224 E26.52133
G1 X128.869 Y34.743 E26.57843
G1 X131.170 Y32.442 E26.96488
G1 X144.424 Y32.442 E28.53899
G1 X146.725 Y34.743 E28.92545
G1 X146.725 Y45.397 E30.19077
G1 X144.424 Y47.698 E30.57722
G1 X136.143 Y47.698 E31.56069
G1 X135.725 Y48.116 E31.63095
G1 X135.725 Y50.397 E31.90183
G1 X133.424 Y52.698 E32.28829
G1 X112.170 Y52.698 E34.81252
G1 X109.869 Y50.397 E35.19897
G1 X109.869 Y48.116 E35.46985
G1 X109.451 Y47.698 E35.54011
G1 X101.170 Y47.698 E36.52358
G1 X100.012 Y46.540 E36.71806
G1 X99.420 Y46.540 E36.78833
G1 X97.894 Y48.066 E37.04464
G1 X89.614 Y48.066 E38.02811
G1 X89.195 Y48.484 E38.09837
G1 X89.195 Y50.765 E38.36925
G1 X86.421 Y53.540 E38.83524
G1 X86.786 Y54.421 E38.94859
G1 X97.404 Y54.421 E40.20967
G1 X99.002 Y56.019 E40.47797
G1 X99.593 Y56.019 E40.54823
G1 X101.170 Y54.442 E40.81303
G1 X114.424 Y54.442 E42.38714
G1 X116.725 Y56.743 E42.77360
G1 X116.725 Y57.224 E42.83070
G1 X117.143 Y57.642 E42.90096
G1 X128.451 Y57.642 E44.24391
G1 X128.869 Y57.224 E44.31417
G1 X128.869 Y56.743 E44.37127
G1 X131.170 Y54.442 E44.75773
G1 X144.424 Y54.442 E46.33183
G1 X146.725 Y56.743 E46.71829
G1 X146.725 Y67.397 E47.98361
G1 X144.424 Y69.698 E48.37007
G1 X136.143 Y69.698 E49.35353
G1 X135.725 Y70.116 E49.42380
G1 X135.725 Y72.397 E49.69467
G1 X133.424 Y74.698 E50.08113
G1 X112.170 Y74.698 E52.60536
G1 X109.869 Y72.397 E52.99182
G1 X109.869 Y70.116 E53.26269
G1 X109.451 Y69.698 E53.33296
G1 X101.170 Y69.698 E54.31642
G1 X99.573 Y68.100 E54.58472
G1 X98.981 Y68.100 E54.65499
G1 X97.404 Y69.677 E54.91979
G1 X89.124 Y69.677 E55.90325
G1 X88.705 Y70.095 E55.97352
G1 X88.705 Y72.376 E56.24439
G1 X86.404 Y74.677 E56.63085
G1 X65.150 Y74.677 E59.15508
G1 X62.849 Y72.376 E59.54154
G1 X62.849 Y70.095 E59.81241
G1 X62.431 Y69.677 E59.88268
G1 X54.150 Y69.677 E60.86614
G1 X53.593 Y69.120 E60.95970
G1 X53.002 Y69.120 E61.02996
G1 X52.424 Y69.698 E61.12702
G1 X44.143 Y69.698 E62.11048
G1 X43.725 Y70.116 E62.18075
G1 X43.725 Y72.397 E62.45162
G1 X41.424 Y74.698 E62.83808
G1 X20.170 Y74.698 E65.36231
G1 X17.869 Y72.397 E65.74876
G1 X17.869 Y70.116 E66.01964
G1 X17.451 Y69.698 E66.08990
G1 X9.170 Y69.698 E67.07337
G1 X6.869 Y67.397 E67.45983
G1 X6.869 Y56.743 E68.72515
G1 X9.170 Y54.442 E69.11160
G1 X22.424 Y54.442 E70.68571
G1 X24.725 Y56.743 E71.07217
G1 X24.725 Y57.224 E71.12927
G1 X25.143 Y57.642 E71.19953
G1 X36.451 Y57.642 E72.54248
G1 X36.869 Y57.224 E72.61274
G1 X36.869 Y56.743 E72.66984
G1 X39.170 Y54.442 E73.05629
G1 X52.424 Y54.442 E74.63040
G1 X52.981 Y54.999 E74.72396
G1 X53.573 Y54.999 E74.79422
G1 X54.150 Y54.421 E74.89127
G1 X65.749 Y54.421 E76.26875
G1 X66.091 Y53.595 E76.37497
G1 X66.114 Y52.352 F4200.000
G1 X65.936 Y52.352 E76.39608 F1080.000
G1 X64.054 Y50.469 E76.71227
G1 X64.054 Y47.770 E77.03283
G1 X63.635 Y47.352 E77.10309
G1 X54.936 Y47.352 E78.13624
G1 X53.644 Y46.060 E78.35330
G1 X53.052 Y46.060 E78.42356
G1 X52.128 Y46.984 E78.57878
G1 X43.429 Y46.984 E79.61193
G1 X43.011 Y47.402 E79.68220
G1 X43.011 Y50.101 E80.00276
G1 X41.128 Y51.984 E80.31895
G1 X20.466 Y51.984 E82.77292
G1 X18.583 Y50.101 E83.08911
G1 X18.583 Y47.402 E83.40967
G1 X18.165 Y46.984 E83.47993
G1 X9.466 Y46.984 E84.51308
G1 X7.583 Y45.101 E84.82927
G1 X7.583 Y35.039 E86.02433
G1 X9.466 Y33.156 E86.34052
G1 X19.850 Y33.156 E87.57375
G1 X22.128 Y33.156 E87.84436 F1080.000
G1 X24.011 Y35.039 E88.16056
G1 X24.011 Y35.938 E88.26734
G1 X24.429 Y36.356 E88.33760
G1 X37.165 Y36.356 E89.85018
G1 X37.583 Y35.938 E89.92045
G1 X37.583 Y35.039 E90.02723
G1 X39.466 Y33.156 E90.34342
G1 X52.128 Y33.156 E91.84727
G1 X53.420 Y34.449 E92.06432
G1 X54.012 Y34.449 E92.13459
G1 X54.936 Y33.524 E92.28981
G1 X67.599 Y33.524 E93.79365
G1 X69.481 Y35.407 E94.10984
G1 X69.481 Y36.306 E94.21662
G1 X69.899 Y36.724 E94.28689
G1 X82.635 Y36.724 E95.79947
G1 X83.054 Y36.306 E95.86973
G1 X83.054 Y35.407 E95.97652
G1 X84.936 Y33.524 E96.29271
G1 X97.599 Y33.524 E97.79655
G1 X99.052 Y34.978 E98.04072
G1 X99.644 Y34.978 E98.11098
G1 X101.466 Y33.156 E98.41699
G1 X114.128 Y33.156 E99.92083
G1 X116.011 Y35.039 E100.23702
G1 X116.011 Y35.938 E100.34380
G1 X116.429 Y36.356 E100.41407
G1 X129.165 Y36.356 E101.92665
G1 X129.583 Y35.938 E101.99691
G1 X129.583 Y35.039 E102.10369
G1 X131.466 Y33.156 E102.41989
G1 X144.128 Y33.156 E103.92373
G1 X146.011 Y35.039 E104.23992
G1 X146.011 Y45.101 E105.43498
G1 X144.128 Y46.984 E105.75117
G1 X135.429 Y46.984 E106.78432
G1 X135.011 Y47.402 E106.85458
G1 X135.011 Y50.101 E107.17514
G1 X133.128 Y51.984 E107.49134
G1 X112.466 Y51.984 E109.94530
G1 X110.583 Y50.101 E110.26149
G1 X110.583 Y47.402 E110.58205
G1 X110.165 Y46.984 E110.65232
G1 X101.466 Y46.984 E111.68547
G1 X100.012 Y45.530 E111.92963
G1 X99.420 Y45.530 E111.99990
G1 X97.599 Y47.352 E112.30590
G1 X88.899 Y47.352 E113.33905
G1 X88.481 Y47.770 E113.40932
G1 X88.481 Y50.469 E113.72988
G1 X86.599 Y52.352 E114.04607
G1 X66.174 Y52.352 E116.47180
G1 E115.47180 F1800.00000
G92 E0
G1 X100.297 Y44.805 F4200.000
G1 E1.00000 F1800.00000
G1 X100.297 Y35.335 E2.12479 F1080.000
G1 X101.762 Y33.870 E2.37072
G1 X113.832 Y33.870 E3.80430
G1 X115.296 Y35.335 E4.05022 F1080.000
G1 X115.296 Y36.652 E4.20669
G1 X115.715 Y37.070 E4.27695
G1 X129.879 Y37.070 E5.95917
G1 X130.297 Y36.652 E6.02943
G1 X130.297 Y35.335 E6.18590
G1 X131.762 Y33.870 E6.43183
G1 X143.832 Y33.870 E7.86541
G1 X145.296 Y35.335 E8.11133
G1 X145.296 Y44.805 E9.23612
G1 X143.832 Y46.270 E9.48205
G1 X134.715 Y46.270 E10.56488
G1 X134.296 Y46.688 E10.63515
G1 X134.296 Y49.805 E11.00539
G1 X132.832 Y51.270 E11.25132
G1 X112.762 Y51.270 E13.63502
G1 X111.297 Y49.805 E13.88095
G1 X111.297 Y46.688 E14.25119
G1 X110.879 Y46.270 E14.32146
G1 X101.762 Y46.270 E15.40429
G1 X100.340 Y44.848 E15.64309
G1 X101.012 Y44.510 F4200.000
G1 X101.012 Y35.630 E16.69762 F1080.000
G1 X102.057 Y34.585 E16.87328
G1 X111.850 Y34.585 E18.03625
G1 X113.536 Y34.585 E18.23659 F1080.000
G1 X114.582 Y35.630 E18.41226
G1 X114.582 Y37.366 E18.61841
G1 X115.001 Y37.785 E18.68867
G1 X130.593 Y37.785 E20.54052
G1 X131.012 Y37.366 E20.61079
G1 X131.012 Y35.630 E20.81694
G1 X132.057 Y34.585 E20.99260
G1 X143.536 Y34.585 E22.35591
G1 X144.582 Y35.630 E22.53158
G1 X144.582 Y44.510 E23.58610
G1 X143.536 Y45.555 E23.76176
G1 X134.001 Y45.555 E24.89428
G1 X133.582 Y45.974 E24.96455
G1 X133.582 Y49.510 E25.38448
G1 X132.536 Y50.555 E25.56014
G1 X113.057 Y50.555 E27.87357
G1 X112.012 Y49.510 E28.04924
G1 X112.012 Y45.974 E28.46917
G1 X111.593 Y45.555 E28.53943
G1 X102.057 Y45.555 E29.67195
G1 X101.054 Y44.552 E29.84049
G1 X101.726 Y44.214 F4200.000
G1 X101.726 Y35.926 E30.82475 F1080.000
G1 X102.353 Y35.299 E30.93014
G1 X113.241 Y35.299 E32.22319
G1 X113.868 Y35.926 E32.32859 F1080.000
G1 X113.868 Y38.080 E32.58443
G1 X114.287 Y38.499 E32.65469
G1 X131.307 Y38.499 E34.67617
G1 X131.726 Y38.080 E34.74644
G1 X131.726 Y35.926 E35.00228
G1 X132.353 Y35.299 E35.10767
G1 X143.241 Y35.299 E36.40072
G1 X143.868 Y35.926 E36.50612
G1 X143.868 Y44.214 E37.49038
G1 X143.241 Y44.841 E37.59578
G1 X133.287 Y44.841 E38.77798
G1 X132.868 Y45.260 E38.84825
G1 X132.868 Y49.214 E39.31786
G1 X132.241 Y49.841 E39.42326
G1 X113.353 Y49.841 E41.66643
G1 X112.726 Y49.214 E41.77183
G1 X112.726 Y45.260 E42.24144
G1 X112.307 Y44.841 E42.31170
G1 X102.353 Y44.841 E43.49391
G1 X101.768 Y44.256 E43.59218
G1 E42.59218 F1800.00000
G92 E0
G1 X113.649 Y49.127 F4200.000
G1 E1.00000 F1800.00000
G1 X113.440 Y48.918 E1.03513 F1080.000
G1 X113.440 Y44.545 E1.55443
G1 X113.021 Y44.127 E1.62470
G1 X102.649 Y44.127 E2.85659
G1 X102.440 Y43.918 E2.89172
G1 X102.440 Y36.222 E3.80571
G1 X102.649 Y36.013 E3.84085
G1 X112.945 Y36.013 E5.06363
G1 X113.154 Y36.222 E5.09876
G1 X113.154 Y38.795 E5.40428
G1 X113.572 Y39.213 E5.47455
G1 X132.021 Y39.213 E7.66566
G1 X132.440 Y38.795 E7.73593
G1 X132.440 Y36.222 E8.04145
G1 X132.649 Y36.013 E8.07658
G1 X142.945 Y36.013 E9.29937
G1 X143.154 Y36.222 E9.33450
G1 X143.154 Y43.918 E10.24850
G1 X142.945 Y44.127 E10.28363
G1 X132.572 Y44.127 E11.51552
G1 X132.154 Y44.545 E11.58578
G1 X132.154 Y48.918 E12.10508
G1 X131.945 Y49.127 E12.14021
G1 X113.709 Y49.127 E14.30599
G1 E13.30599 F1800.00000
G92 E0
G1 X98.767 Y45.174 F4200.000
G1 E1.00000 F1800.00000
G1 X97.303 Y46.638 E1.24593 F1080.000
G1 X88.185 Y46.638 E2.32876
G1 X87.767 Y47.056 E2.39903
G1 X87.767 Y50.174 E2.76927
G1 X86.303 Y51.638 E3.01520
G1 X66.232 Y51.638 E5.39890
G1 X64.768 Y50.174 E5.64483
G1 X64.768 Y47.056 E6.01507
G1 X64.349 Y46.638 E6.08534
G1 X55.232 Y46.638 E7.16817
G1 X53.644 Y45.050 E7.43491
G1 X53.052 Y45.050 E7.50518
G1 X51.832 Y46.270 E7.71008
G1 X42.715 Y46.270 E8.79292
G1 X42.296 Y46.688 E8.86318
G1 X42.296 Y49.805 E9.23343
G1 X40.832 Y51.270 E9.47935
G1 X20.762 Y51.270 E11.86305
G1 X19.297 Y49.805 E12.10898
G1 X19.297 Y46.688 E12.47923
G1 X18.879 Y46.270 E12.54949
G1 X9.762 Y46.270 E13.63233
G1 X8.297 Y44.805 E13.87825
G1 X8.297 Y35.335 E15.00304
G1 X9.762 Y33.870 E15.24897
G1 X21.832 Y33.870 E16.68255
G1 X23.296 Y35.335 E16.92848 F1080.000
G1 X23.296 Y36.652 E17.08494
G1 X23.715 Y37.070 E17.15521
G1 X37.879 Y37.070 E18.83742
G1 X38.297 Y36.652 E18.90769
G1 X38.297 Y35.335 E19.06415
G1 X39.762 Y33.870 E19.31008
G1 X51.832 Y33.870 E20.74366
G1 X53.420 Y35.459 E21.01040
G1 X54.012 Y35.459 E21.08066
G1 X55.232 Y34.239 E21.28557
G1 X67.303 Y34.239 E22.71915
G1 X68.767 Y35.703 E22.96508
G1 X68.767 Y37.020 E23.12154
G1 X69.185 Y37.439 E23.19181
G1 X83.349 Y37.439 E24.87402
G1 X83.768 Y37.020 E24.94429
G1 X83.768 Y35.703 E25.10075
G1 X85.232 Y34.239 E25.34668
G1 X97.303 Y34.239 E26.78026
G1 X98.767 Y35.703 E27.02619
G1 X98.767 Y45.114 E28.14385
G1 E27.14385 F1800.00000
G92 E0
G1 X52.582 Y44.510 F4200.000
G1 E1.00000 F1800.00000
G1 X51.536 Y45.555 E1.17566 F1080.000
G1 X42.001 Y45.555 E2.30818
G1 X41.582 Y45.974 E2.37845
G1 X41.582 Y49.510 E2.79838
G1 X40.536 Y50.555 E2.97404
G1 X21.057 Y50.555 E5.28747
G1 X20.012 Y49.510 E5.46314
G1 X20.012 Y45.974 E5.88307
G1 X19.593 Y45.555 E5.95333
G1 X10.057 Y45.555 E7.08585
G1 X9.012 Y44.510 E7.26151
G1 X9.012 Y35.630 E8.31604
G1 X10.057 Y34.585 E8.49170
G1 X19.850 Y34.585 E9.65467
G1 X21.536 Y34.585 E9.85501 F1080.000
G1 X22.582 Y35.630 E10.03068
G1 X22.582 Y37.366 E10.23683
G1 X23.001 Y37.785 E10.30709
G1 X38.593 Y37.785 E12.15894
G1 X39.012 Y37.366 E12.22920
G1 X39.012 Y35.630 E12.43536
G1 X40.057 Y34.585 E12.61102
G1 X51.536 Y34.585 E13.97433
G1 X52.582 Y35.630 E14.14999
G1 X52.582 Y44.450 E15.19739
G1 X51.868 Y44.214 F4200.000
G1 X51.241 Y44.841 E15.30279 F1080.000
G1 X41.287 Y44.841 E16.48500
G1 X40.868 Y45.260 E16.55526
G1 X40.868 Y49.214 E17.02487
G1 X40.241 Y49.841 E17.13027
G1 X21.353 Y49.841 E19.37344
G1 X20.726 Y49.214 E19.47884
G1 X20.726 Y45.260 E19.94845
G1 X20.307 Y44.841 E20.01872
G1 X10.353 Y44.841 E21.20092
G1 X9.726 Y44.214 E21.30632
G1 X9.726 Y35.926 E22.29058
G1 X10.353 Y35.299 E22.39598
G1 X21.241 Y35.299 E23.68903
G1 X21.868 Y35.926 E23.79442 F1080.000
G1 X21.868 Y38.080 E24.05026
G1 X22.287 Y38.499 E24.12053
G1 X39.307 Y38.499 E26.14201
G1 X39.726 Y38.080 E26.21227
G1 X39.726 Y35.926 E26.46811
G1 X40.353 Y35.299 E26.57351
G1 X51.241 Y35.299 E27.86656
G1 X51.868 Y35.926 E27.97195
G1 X51.868 Y44.154 E28.94909
G1 E27.94909 F1800.00000
G92 E0
G1 X39.945 Y49.127 F4200.000
G1 E1.00000 F1800.00000
G1 X21.649 Y49.127 E3.17291 F1080.000
G1 X21.440 Y48.918 E3.20804
G1 X21.440 Y44.545 E3.72734
G1 X21.021 Y44.127 E3.79760
G1 X10.649 Y44.127 E5.02949
G1 X10.440 Y43.918 E5.06462
G1 X10.440 Y36.222 E5.97862
G1 X10.649 Y36.013 E6.01375
G1 X20.945 Y36.013 E7.23654
G1 X21.154 Y36.222 E7.27167
G1 X21.154 Y38.795 E7.57719
G1 X21.572 Y39.213 E7.64745
G1 X40.021 Y39.213 E9.83857
G1 X40.440 Y38.795 E9.90884
G1 X40.440 Y36.222 E10.21436
G1 X40.649 Y36.013 E10.24949
G1 X50.945 Y36.013 E11.47227
G1 X51.154 Y36.222 E11.50741
G1 X51.154 Y43.918 E12.42140
G1 X50.945 Y44.127 E12.45653
G1 X40.572 Y44.127 E13.68842
G1 X40.154 Y44.545 E13.75869
G1 X40.154 Y48.918 E14.27799
G1 X39.987 Y49.085 E14.30599
G1 E13.30599 F1800.00000
G92 E0
G1 X54.482 Y44.878 F4200.000
G1 E1.00000 F1800.00000
G1 X54.482 Y35.999 E2.05452 F1080.000
G1 X55.528 Y34.953 E2.23019
G1 X65.320 Y34.953 E3.39316
G1 X67.007 Y34.953 E3.59350 F1080.000
G1 X68.053 Y35.999 E3.76916
G1 X68.053 Y37.734 E3.97531
G1 X68.471 Y38.153 E4.04558
G1 X84.064 Y38.153 E5.89743
G1 X84.482 Y37.734 E5.96769
G1 X84.482 Y35.999 E6.17384
G1 X85.528 Y34.953 E6.34951
G1 X97.007 Y34.953 E7.71282
G1 X98.053 Y35.999 E7.88848
G1 X98.053 Y44.878 E8.94301
G1 X97.007 Y45.924 E9.11867
G1 X87.471 Y45.924 E10.25119
G1 X87.053 Y46.342 E10.32145
G1 X87.053 Y49.878 E10.74138
G1 X86.007 Y50.924 E10.91705
G1 X66.528 Y50.924 E13.23048
G1 X65.482 Y49.878 E13.40614
G1 X65.482 Y46.342 E13.82607
G1 X65.064 Y45.924 E13.89634
G1 X55.528 Y45.924 E15.02886
G1 X54.524 Y44.920 E15.19740
G1 X55.196 Y44.582 F4200.000
G1 X55.196 Y36.294 E16.18165 F1080.000
G1 X55.824 Y35.667 E16.28705
G1 X66.711 Y35.667 E17.58010
G1 X67.339 Y36.294 E17.68550 F1080.000
G1 X67.339 Y38.449 E17.94134
G1 X67.757 Y38.867 E18.01160
G1 X84.778 Y38.867 E20.03308
G1 X85.196 Y38.449 E20.10335
G1 X85.196 Y36.294 E20.35918
G1 X85.824 Y35.667 E20.46458
