; generated by Slic3r 1.2.9 on 2015-09-29 at 20:34:53

; external perimeters extrusion width = 0.40mm
; perimeters extrusion width = 0.67mm
; infill extrusion width = 0.67mm
; solid infill extrusion width = 0.67mm
; top infill extrusion width = 0.67mm
; support material extrusion width = 0.40mm

M107
M104 S208 ; set temperature
G28 X0 Y0  
G29
M109 S208 ; wait for temperature to be reached
G21 ; set units to millimeters
G90 ; use absolute coordinates
M82 ; use absolute distances for extrusion
G92 E0
G1 E-1.00000 F1800.00000
G92 E0
G1 Z0.400 F4200.000
G1 X4.168 Y4.882 F4200.000
G1 E1.00000 F1800.00000
G1 X5.153 Y4.040 E1.15383 F1080.000
G1 X7.313 Y3.225 E1.42806
G1 X8.571 Y3.106 E1.57802
G1 X140.571 Y3.106 E17.25503
G1 X142.845 Y3.503 E17.52925
G1 X144.851 Y4.647 E17.80348 F1080.000
G1 X146.350 Y6.403 E18.07770
G1 X147.166 Y8.563 E18.35192
G1 X147.285 Y9.807 E18.50040
G1 X147.364 Y51.693 E23.47492
G1 X147.356 Y79.770 E26.80947
G1 X147.285 Y101.200 E29.35471
G1 X146.003 Y122.619 E31.90310
G1 X145.470 Y124.866 E32.17732
G1 X144.207 Y126.799 E32.45155
G1 X142.079 Y128.327 E32.76264
G1 X131.079 Y133.327 E34.19769
G1 X128.302 Y133.929 E34.53522
G1 X19.571 Y133.934 E47.44869
G1 X16.792 Y133.332 E47.78631
G1 X5.792 Y128.332 E49.22136
G1 X3.886 Y127.030 E49.49558
G1 X2.533 Y125.158 E49.76981
G1 X1.856 Y122.220 E50.12791
G1 X1.856 Y9.820 E63.47712
G1 X2.253 Y7.545 E63.75134
G1 X3.398 Y5.540 E64.02557
G1 X4.123 Y4.921 E64.13883
G1 E63.13883 F1800.00000
G92 E0
G1 X17.806 Y26.010 F4200.000
G1 E1.00000 F1800.00000
G1 X15.643 Y23.847 E1.36337 F1080.000
G1 X15.643 Y21.566 E1.63424
G1 X15.224 Y21.148 E1.70451
G1 X6.944 Y21.148 E2.68797
G1 X4.643 Y18.847 E3.07443
G1 X4.643 Y8.193 E4.33975
G1 X6.944 Y5.892 E4.72621
G1 X20.198 Y5.892 E6.30031
G1 X22.498 Y8.193 E6.68677
G1 X22.498 Y8.674 E6.74387
G1 X22.917 Y9.092 E6.81413
G1 X34.224 Y9.092 E8.15708
G1 X34.643 Y8.674 E8.22734
G1 X34.643 Y8.193 E8.28444
G1 X36.944 Y5.892 E8.67090
G1 X50.198 Y5.892 E10.24501
G1 X51.275 Y6.969 E10.42593
G1 X51.866 Y6.969 E10.49620
G1 X52.944 Y5.892 E10.67712
G1 X66.198 Y5.892 E12.25123
G1 X68.498 Y8.193 E12.63769
G1 X68.498 Y8.674 E12.69479
G1 X68.917 Y9.092 E12.76505
G1 X80.224 Y9.092 E14.10800
G1 X80.643 Y8.674 E14.17826
G1 X80.643 Y8.193 E14.23536
G1 X82.944 Y5.892 E14.62182
G1 X96.198 Y5.892 E16.19592
G1 X97.275 Y6.969 E16.37685
G1 X97.866 Y6.969 E16.44712
G1 X98.944 Y5.892 E16.62804
G1 X112.198 Y5.892 E18.20215
G1 X114.498 Y8.193 E18.58861
G1 X114.498 Y8.674 E18.64571
G1 X114.917 Y9.092 E18.71597
G1 X126.224 Y9.092 E20.05891
G1 X126.643 Y8.674 E20.12918
G1 X126.643 Y8.193 E20.18628
G1 X128.944 Y5.892 E20.57273
G1 X142.198 Y5.892 E22.14684
G1 X144.498 Y8.193 E22.53330
G1 X144.498 Y18.847 E23.79862
G1 X142.198 Y21.148 E24.18508
G1 X133.917 Y21.148 E25.16854
G1 X133.498 Y21.566 E25.23881
G1 X133.498 Y23.847 E25.50968
G1 X131.335 Y26.010 E25.87305
G1 X131.700 Y26.892 E25.98639
G1 X142.198 Y26.892 E27.23311
G1 X144.498 Y29.193 E27.61956
G1 X144.498 Y39.847 E28.88488
G1 X142.198 Y42.148 E29.27134
G1 X133.917 Y42.148 E30.25481
G1 X133.498 Y42.566 E30.32507
G1 X133.498 Y44.847 E30.59595
G1 X131.462 Y46.883 E30.93793
G1 X131.828 Y47.765 E31.05127
G1 X142.276 Y47.765 E32.29223
G1 X144.577 Y50.066 E32.67868
G1 X144.577 Y60.720 E33.94400
G1 X142.276 Y63.021 E34.33046
G1 X133.996 Y63.021 E35.31392
G1 X133.577 Y63.439 E35.38419
G1 X133.577 Y65.720 E35.65506
G1 X131.740 Y67.557 E35.96372
G1 X132.105 Y68.439 E36.07707
G1 X142.268 Y68.439 E37.28415
G1 X144.569 Y70.740 E37.67061
G1 X144.569 Y81.394 E38.93592
G1 X142.268 Y83.695 E39.32238
G1 X133.988 Y83.695 E40.30585
G1 X133.569 Y84.113 E40.37611
G1 X133.569 Y86.394 E40.64699
G1 X130.995 Y88.968 E41.07941
G1 X131.360 Y89.850 E41.19275
G1 X142.198 Y89.850 E42.47991
G1 X144.499 Y92.151 E42.86636
G1 X144.499 Y102.805 E44.13168
G1 X142.198 Y105.106 E44.51814
G1 X133.917 Y105.106 E45.50161
G1 X133.499 Y105.524 E45.57187
G1 X133.499 Y107.805 E45.84275
G1 X131.299 Y110.005 E46.21227
G1 X131.664 Y110.887 E46.32562
G1 X140.928 Y110.887 E47.42586
G1 X143.229 Y113.188 E47.81232
G1 X143.229 Y123.842 E49.07764
G1 X140.928 Y126.143 E49.46410
G1 X132.647 Y126.143 E50.44756
G1 X132.229 Y126.561 E50.51783
G1 X132.229 Y128.842 E50.78870
G1 X129.928 Y131.143 E51.17516
G1 X108.674 Y131.143 E53.69939
G1 X106.373 Y128.842 E54.08584
G1 X106.373 Y126.561 E54.35672
G1 X105.955 Y126.143 E54.42698
G1 X97.674 Y126.143 E55.41045
G1 X97.234 Y125.703 E55.48431
G1 X96.643 Y125.703 E55.55457
G1 X96.198 Y126.148 E55.62932
G1 X87.917 Y126.148 E56.61278
G1 X87.498 Y126.566 E56.68305
G1 X87.498 Y128.847 E56.95392
G1 X85.198 Y131.148 E57.34038
G1 X63.944 Y131.148 E59.86461
G1 X61.643 Y128.847 E60.25107
G1 X61.643 Y126.566 E60.52194
G1 X61.224 Y126.148 E60.59221
G1 X52.944 Y126.148 E61.57567
G1 X51.866 Y125.071 E61.75660
G1 X51.275 Y125.071 E61.82687
G1 X50.198 Y126.148 E62.00779
G1 X41.917 Y126.148 E62.99126
G1 X41.498 Y126.566 E63.06152
G1 X41.498 Y128.847 E63.33240
G1 X39.198 Y131.148 E63.71885
G1 X17.944 Y131.148 E66.24308
G1 X15.643 Y128.847 E66.62954
G1 X15.643 Y126.566 E66.90042
G1 X15.224 Y126.148 E66.97068
G1 X6.944 Y126.148 E67.95415
G1 X4.643 Y123.847 E68.34060
G1 X4.643 Y113.193 E69.60592
G1 X6.944 Y110.892 E69.99238
G1 X17.441 Y110.892 E71.23909
G1 X17.806 Y110.010 E71.35244
G1 X15.643 Y107.847 E71.71581
G1 X15.643 Y105.566 E71.98668
G1 X15.224 Y105.148 E72.05695
G1 X6.944 Y105.148 E73.04041
G1 X4.643 Y102.847 E73.42687
G1 X4.643 Y92.193 E74.69219
G1 X6.944 Y89.892 E75.07864
G1 X17.441 Y89.892 E76.32536
G1 X17.806 Y89.010 E76.43870
G1 X15.643 Y86.847 E76.80207
G1 X15.643 Y84.566 E77.07295
G1 X15.224 Y84.148 E77.14321
G1 X6.944 Y84.148 E78.12668
G1 X4.643 Y81.847 E78.51313
G1 X4.643 Y71.193 E79.77845
G1 X6.944 Y68.892 E80.16491
G1 X17.441 Y68.892 E81.41162
G1 X17.806 Y68.010 E81.52497
G1 X15.643 Y65.847 E81.88834
G1 X15.643 Y63.566 E82.15921
G1 X15.224 Y63.148 E82.22948
G1 X6.944 Y63.148 E83.21294
G1 X4.643 Y60.847 E83.59940
G1 X4.643 Y50.193 E84.86472
G1 X6.944 Y47.892 E85.25117
G1 X17.441 Y47.892 E86.49789
G1 X17.806 Y47.010 E86.61124
G1 X15.643 Y44.847 E86.97460
G1 X15.643 Y42.566 E87.24548
G1 X15.224 Y42.148 E87.31574
G1 X6.944 Y42.148 E88.29921
G1 X4.643 Y39.847 E88.68566
G1 X4.643 Y29.193 E89.95098
G1 X6.944 Y26.892 E90.33744
G1 X17.441 Y26.892 E91.58415
G1 X17.783 Y26.066 E91.69037
G1 X18.239 Y25.434 F4200.000
G1 X16.357 Y23.551 E92.00657 F1080.000
G1 X16.357 Y20.852 E92.32713
G1 X15.939 Y20.434 E92.39739
G1 X7.239 Y20.434 E93.43054
G1 X5.357 Y18.551 E93.74673
G1 X5.357 Y8.489 E94.94179
G1 X7.239 Y6.606 E95.25798
G1 X19.902 Y6.606 E96.76182
G1 X21.784 Y8.489 E97.07802 F1080.000
G1 X21.784 Y9.388 E97.18480
G1 X22.203 Y9.806 E97.25506
G1 X34.939 Y9.806 E98.76764
G1 X35.357 Y9.388 E98.83791
G1 X35.357 Y8.489 E98.94469
G1 X37.239 Y6.606 E99.26088
G1 X49.902 Y6.606 E100.76472
G1 X51.275 Y7.979 E100.99534
G1 X51.866 Y7.979 E101.06560
G1 X53.239 Y6.606 E101.29621
G1 X65.902 Y6.606 E102.80006
G1 X67.784 Y8.489 E103.11625
G1 X67.784 Y9.388 E103.22303
G1 X68.203 Y9.806 E103.29330
G1 X80.939 Y9.806 E104.80587
G1 X81.357 Y9.388 E104.87614
G1 X81.357 Y8.489 E104.98292
G1 X83.239 Y6.606 E105.29911
G1 X95.902 Y6.606 E106.80296
G1 X97.275 Y7.979 E107.03357
G1 X97.866 Y7.979 E107.10383
G1 X99.239 Y6.606 E107.33445
G1 X111.902 Y6.606 E108.83829
G1 X113.784 Y8.489 E109.15448
G1 X113.784 Y9.388 E109.26126
G1 X114.203 Y9.806 E109.33153
G1 X126.939 Y9.806 E110.84411
G1 X127.357 Y9.388 E110.91437
G1 X127.357 Y8.489 E111.02115
G1 X129.239 Y6.606 E111.33735
G1 X141.902 Y6.606 E112.84119
G1 X143.784 Y8.489 E113.15738
G1 X143.784 Y18.551 E114.35244
G1 X141.902 Y20.434 E114.66863
G1 X133.203 Y20.434 E115.70178
G1 X132.784 Y20.852 E115.77204
G1 X132.784 Y23.551 E116.09260
G1 X130.902 Y25.434 E116.40880
G1 X110.239 Y25.434 E118.86276
G1 X108.357 Y23.551 E119.17895
G1 X108.357 Y20.852 E119.49951
G1 X107.939 Y20.434 E119.56978
G1 X99.239 Y20.434 E120.60293
G1 X97.866 Y19.061 E120.83354
G1 X97.275 Y19.061 E120.90380
G1 X95.902 Y20.434 E121.13442
G1 X87.203 Y20.434 E122.16757
G1 X86.784 Y20.852 E122.23783
G1 X86.784 Y23.551 E122.55839
G1 X84.902 Y25.434 E122.87458
G1 X64.239 Y25.434 E125.32855
G1 X62.357 Y23.551 E125.64474
G1 X62.357 Y20.852 E125.96530
G1 X61.939 Y20.434 E126.03556
G1 X53.239 Y20.434 E127.06871
G1 X51.866 Y19.061 E127.29933
G1 X51.275 Y19.061 E127.36959
G1 X49.902 Y20.434 E127.60020
G1 X41.203 Y20.434 E128.63335
G1 X40.784 Y20.852 E128.70362
G1 X40.784 Y23.551 E129.02418
G1 X38.902 Y25.434 E129.34037
G1 X18.299 Y25.434 E131.78721
G1 X18.535 Y24.720 F4200.000
G1 X17.071 Y23.255 E132.03314 F1080.000
G1 X17.071 Y20.138 E132.40338
G1 X16.653 Y19.720 E132.47365
G1 X7.535 Y19.720 E133.55648
G1 X6.071 Y18.255 E133.80241
G1 X6.071 Y8.785 E134.92720
G1 X7.535 Y7.320 E135.17312
G1 X19.606 Y7.320 E136.60670
G1 X21.070 Y8.785 E136.85263
G1 X21.070 Y10.102 E137.00910 F1080.000
G1 X21.489 Y10.520 E137.07936
G1 X35.653 Y10.520 E138.76158
G1 X36.071 Y10.102 E138.83184
G1 X36.071 Y8.785 E138.98831
G1 X37.535 Y7.320 E139.23423
G1 X49.606 Y7.320 E140.66781
G1 X51.275 Y8.989 E140.94811
G1 X51.866 Y8.989 E141.01838
G1 X53.535 Y7.320 E141.29867
G1 X65.606 Y7.320 E142.73225
G1 X67.070 Y8.785 E142.97818
G1 X67.070 Y10.102 E143.13464
G1 X67.489 Y10.520 E143.20491
G1 X81.653 Y10.520 E144.88712
G1 X82.071 Y10.102 E144.95739
G1 X82.071 Y8.785 E145.11385
G1 X83.535 Y7.320 E145.35978
G1 X95.606 Y7.320 E146.79336
G1 X97.275 Y8.989 E147.07366
G1 X97.866 Y8.989 E147.14392
G1 X99.535 Y7.320 E147.42422
G1 X111.606 Y7.320 E148.85780
G1 X113.070 Y8.785 E149.10372
G1 X113.070 Y10.102 E149.26019
G1 X113.489 Y10.520 E149.33046
G1 X127.653 Y10.520 E151.01267
G1 X128.071 Y10.102 E151.08293
G1 X128.071 Y8.785 E151.23940
G1 X129.535 Y7.320 E151.48533
G1 X141.606 Y7.320 E152.91891
G1 X143.070 Y8.785 E153.16483
G1 X143.070 Y18.255 E154.28962
G1 X141.606 Y19.720 E154.53555
G1 X132.489 Y19.720 E155.61839
G1 X132.070 Y20.138 E155.68865
G1 X132.070 Y23.255 E156.05890
G1 X130.606 Y24.720 E156.30482
G1 X110.535 Y24.720 E158.68852
G1 X109.071 Y23.255 E158.93445
G1 X109.071 Y20.138 E159.30469
G1 X108.653 Y19.720 E159.37496
G1 X99.535 Y19.720 E160.45779
G1 X97.866 Y18.051 E160.73809
G1 X97.275 Y18.051 E160.80836
G1 X95.606 Y19.720 E161.08865
G1 X86.489 Y19.720 E162.17149
G1 X86.070 Y20.138 E162.24175
G1 X86.070 Y23.255 E162.61200
G1 X84.606 Y24.720 E162.85792
G1 X64.535 Y24.720 E165.24162
G1 X63.071 Y23.255 E165.48755
G1 X63.071 Y20.138 E165.85780
G1 X62.653 Y19.720 E165.92806
G1 X53.535 Y19.720 E167.01090
G1 X51.866 Y18.051 E167.29119
G1 X51.275 Y18.051 E167.36146
G1 X49.606 Y19.720 E167.64175
G1 X40.489 Y19.720 E168.72459
G1 X40.070 Y20.138 E168.79485
G1 X40.070 Y23.255 E169.16510
G1 X38.606 Y24.720 E169.41103
G1 X18.595 Y24.720 E171.78760
G1 E170.78760 F1800.00000
G92 E0
G1 X98.785 Y17.960 F4200.000
G1 E1.00000 F1800.00000
G1 X98.785 Y9.080 E2.05452 F1080.000
G1 X99.831 Y8.035 E2.23019
G1 X111.310 Y8.035 E3.59350
G1 X112.356 Y9.080 E3.76916 F1080.000
G1 X112.356 Y10.816 E3.97531
G1 X112.774 Y11.235 E4.04558
G1 X128.367 Y11.235 E5.89743
G1 X128.785 Y10.816 E5.96769
G1 X128.785 Y9.080 E6.17384
G1 X129.831 Y8.035 E6.34951
G1 X141.310 Y8.035 E7.71282
G1 X142.356 Y9.080 E7.88848
G1 X142.356 Y17.960 E8.94301
G1 X141.310 Y19.005 E9.11867
G1 X131.774 Y19.005 E10.25119
G1 X131.356 Y19.424 E10.32145
G1 X131.356 Y22.960 E10.74138
G1 X130.310 Y24.005 E10.91705
G1 X110.831 Y24.005 E13.23048
G1 X109.785 Y22.960 E13.40614
G1 X109.785 Y19.424 E13.82607
G1 X109.367 Y19.005 E13.89634
G1 X99.831 Y19.005 E15.02886
G1 X98.828 Y18.002 E15.19739
G1 X99.499 Y17.664 F4200.000
G1 X99.499 Y9.376 E16.18165 F1080.000
G1 X100.127 Y8.749 E16.28705
G1 X111.014 Y8.749 E17.58010
G1 X111.642 Y9.376 E17.68550
G1 X111.642 Y11.530 E17.94133 F1080.000
G1 X112.060 Y11.949 E18.01160
G1 X129.081 Y11.949 E20.03308
G1 X129.499 Y11.530 E20.10335
G1 X129.499 Y9.376 E20.35918
G1 X130.127 Y8.749 E20.46458
G1 X141.014 Y8.749 E21.75763
G1 X141.642 Y9.376 E21.86303
G1 X141.642 Y17.664 E22.84729
G1 X141.014 Y18.291 E22.95268
G1 X131.060 Y18.291 E24.13489
G1 X130.642 Y18.710 E24.20515
G1 X130.642 Y22.664 E24.67477
G1 X130.014 Y23.291 E24.78016
G1 X111.127 Y23.291 E27.02333
G1 X110.499 Y22.664 E27.12873
G1 X110.499 Y18.710 E27.59835
G1 X110.081 Y18.291 E27.66861
G1 X100.127 Y18.291 E28.85082
G1 X99.542 Y17.706 E28.94909
G1 E27.94909 F1800.00000
G92 E0
G1 X111.423 Y22.577 F4200.000
G1 E1.00000 F1800.00000
G1 X111.214 Y22.368 E1.03513 F1080.000
G1 X111.214 Y17.995 E1.55443
G1 X110.795 Y17.577 E1.62470
G1 X100.423 Y17.577 E2.85659
G1 X100.214 Y17.368 E2.89172
G1 X100.214 Y9.672 E3.80571
G1 X100.423 Y9.463 E3.84085
G1 X110.719 Y9.463 E5.06363
G1 X110.928 Y9.672 E5.09876
G1 X110.928 Y12.245 E5.40428
G1 X111.346 Y12.663 E5.47455
G1 X129.795 Y12.663 E7.66566
G1 X130.214 Y12.245 E7.73593
G1 X130.214 Y9.672 E8.04145
G1 X130.423 Y9.463 E8.07658
G1 X140.719 Y9.463 E9.29937
G1 X140.928 Y9.672 E9.33450
G1 X140.928 Y17.368 E10.24850
G1 X140.719 Y17.577 E10.28363
G1 X130.346 Y17.577 E11.51552
G1 X129.928 Y17.995 E11.58578
G1 X129.928 Y22.368 E12.10508
G1 X129.719 Y22.577 E12.14021
G1 X111.483 Y22.577 E14.30599
G1 E13.30599 F1800.00000
G92 E0
G1 X96.356 Y17.960 F4200.000
G1 E1.00000 F1800.00000
G1 X95.310 Y19.005 E1.17566 F1080.000
G1 X85.774 Y19.005 E2.30818
G1 X85.356 Y19.424 E2.37845
G1 X85.356 Y22.960 E2.79838
G1 X84.310 Y24.005 E2.97404
G1 X64.831 Y24.005 E5.28747
G1 X63.785 Y22.960 E5.46314
G1 X63.785 Y19.424 E5.88306
G1 X63.367 Y19.005 E5.95333
G1 X53.831 Y19.005 E7.08585
G1 X52.785 Y17.960 E7.26151
G1 X52.785 Y9.080 E8.31604
G1 X53.831 Y8.035 E8.49170
G1 X65.310 Y8.035 E9.85501
G1 X66.356 Y9.080 E10.03068 F1080.000
G1 X66.356 Y10.816 E10.23683
G1 X66.774 Y11.235 E10.30709
G1 X82.367 Y11.235 E12.15894
G1 X82.785 Y10.816 E12.22920
G1 X82.785 Y9.080 E12.43536
G1 X83.831 Y8.035 E12.61102
G1 X95.310 Y8.035 E13.97433
G1 X96.356 Y9.080 E14.14999
G1 X96.356 Y17.900 E15.19739
G1 X95.642 Y17.664 F4200.000
G1 X95.014 Y18.291 E15.30279 F1080.000
G1 X85.060 Y18.291 E16.48500
G1 X84.642 Y18.710 E16.55526
G1 X84.642 Y22.664 E17.02487
G1 X84.014 Y23.291 E17.13027
G1 X65.127 Y23.291 E19.37344
G1 X64.499 Y22.664 E19.47884
G1 X64.499 Y18.710 E19.94845
G1 X64.081 Y18.291 E20.01872
G1 X54.127 Y18.291 E21.20092
G1 X53.499 Y17.664 E21.30632
G1 X53.499 Y9.376 E22.29058
G1 X54.127 Y8.749 E22.39598
G1 X65.014 Y8.749 E23.68903
G1 X65.642 Y9.376 E23.79442
G1 X65.642 Y11.530 E24.05026 F1080.000
G1 X66.060 Y11.949 E24.12053
G1 X83.081 Y11.949 E26.14201
G1 X83.499 Y11.530 E26.21227
G1 X83.499 Y9.376 E26.46811
G1 X84.127 Y8.749 E26.57351
G1 X95.014 Y8.749 E27.86656
G1 X95.642 Y9.376 E27.97195
G1 X95.642 Y17.604 E28.94909
G1 E27.94909 F1800.00000
G92 E0
G1 X83.719 Y22.577 F4200.000
G1 E1.00000 F1800.00000
G1 X65.423 Y22.577 E3.17291 F1080.000
G1 X65.214 Y22.368 E3.20804
G1 X65.214 Y17.995 E3.72734
G1 X64.795 Y17.577 E3.79760
G1 X54.423 Y17.577 E5.02949
G1 X54.214 Y17.368 E5.06462
G1 X54.214 Y9.672 E5.97862
G1 X54.423 Y9.463 E6.01375
G1 X64.719 Y9.463 E7.23654
G1 X64.928 Y9.672 E7.27167
G1 X64.928 Y12.245 E7.57719
G1 X65.346 Y12.663 E7.64745
G1 X83.795 Y12.663 E9.83857
G1 X84.214 Y12.245 E9.90884
G1 X84.214 Y9.672 E10.21436
G1 X84.423 Y9.463 E10.24949
G1 X94.719 Y9.463 E11.47227
G1 X94.928 Y9.672 E11.50741
G1 X94.928 Y17.368 E12.42140
G1 X94.719 Y17.577 E12.45653
G1 X84.346 Y17.577 E13.68842
G1 X83.928 Y17.995 E13.75869
G1 X83.928 Y22.368 E14.27799
G1 X83.761 Y22.535 E14.30599
G1 E13.30599 F1800.00000
G92 E0
G1 X50.356 Y17.960 F4200.000
G1 E1.00000 F1800.00000
G1 X49.310 Y19.005 E1.17566 F1080.000
G1 X39.774 Y19.005 E2.30818
G1 X39.356 Y19.424 E2.37845
G1 X39.356 Y22.960 E2.79838
G1 X38.310 Y24.005 E2.97404
G1 X18.831 Y24.005 E5.28747
G1 X17.785 Y22.960 E5.46314
G1 X17.785 Y19.424 E5.88307
G1 X17.367 Y19.005 E5.95333
G1 X7.831 Y19.005 E7.08585
G1 X6.785 Y17.960 E7.26151
G1 X6.785 Y9.080 E8.31604
G1 X7.831 Y8.035 E8.49170
G1 X19.310 Y8.035 E9.85501
G1 X20.356 Y9.080 E10.03068 F1080.000
G1 X20.356 Y10.816 E10.23683
G1 X20.774 Y11.235 E10.30709
G1 X36.367 Y11.235 E12.15894
G1 X36.785 Y10.816 E12.22920
G1 X36.785 Y9.080 E12.43536
G1 X37.831 Y8.035 E12.61102
